Backpack-Common/Icons/Assets/Media.xcassets/speaker-lg.imageset/speaker-lg.svg

<svg viewBox="0 0 24 24" fill="none" xmlns="http://www.w3.org/2000/svg">
<path d="M13.5994 2.35362C14.5295 1.55733 16 2.19313 16 3.39157V20.6084C16 21.8069 14.5294 22.4427 13.5993 21.6463L8.41684 17.209C8.25841 17.0733 8.0538 16.9984 7.8418 16.9984H3.59615C2.16234 16.9984 1 15.8791 1 14.4985V9.50094C1 8.12026 2.16234 7.00101 3.59615 7.00101H7.84186C8.05384 7.00101 8.25844 6.92609 8.41686 6.79046L13.5994 2.35362Z" fill="#161616"/>
<path d="M21.0407 6.05362C20.7942 5.72077 20.3245 5.65079 19.9916 5.89733C19.6588 6.14387 19.5888 6.61356 19.8353 6.94641C20.8816 8.35897 21.5 10.1062 21.5 12C21.5 13.8939 20.8816 15.6411 19.8353 17.0536C19.5888 17.3865 19.6588 17.8562 19.9916 18.1027C20.3245 18.3492 20.7942 18.2793 21.0407 17.9464C22.2718 16.2843 23 14.2261 23 12C23 9.7739 22.2718 7.7157 21.0407 6.05362Z" fill="#161616"/>
<path d="M19.1596 8.67184C18.9624 8.30758 18.5072 8.17214 18.143 8.36933C17.7787 8.56652 17.6433 9.02167 17.8405 9.38593C18.261 10.1627 18.5 11.0523 18.5 12C18.5 12.9477 18.261 13.8373 17.8405 14.6141C17.6433 14.9783 17.7787 15.4335 18.143 15.6307C18.5072 15.8279 18.9624 15.6924 19.1596 15.3282C19.6958 14.3376 20 13.2032 20 12C20 10.7968 19.6958 9.66245 19.1596 8.67184Z" fill="#161616"/>
</svg>

<svg xmlns="http://www.w3.org/2000/svg" viewBox="0 0 24 24"><path d="M13.6 2.354c.93-.797 2.4-.16 2.4 1.038v17.216c0 1.199-1.47 1.835-2.4 1.038L8.416 17.21a.88.88 0 0 0-.575-.21H3.596C2.162 17 1 15.88 1 14.5v-5C1 8.12 2.162 7 3.596 7h4.246a.9.9 0 0 0 .575-.21zm7.44 3.7a.75.75 0 0 0-1.205.892A8.46 8.46 0 0 1 21.5 12a8.46 8.46 0 0 1-1.665 5.054.75.75 0 0 0 1.206.892A9.96 9.96 0 0 0 23 12a9.96 9.96 0 0 0-1.96-5.946"/><path d="M19.16 8.672a.75.75 0 0 0-1.32.714c.421.777.66 1.666.66 2.614s-.239 1.837-.66 2.614a.75.75 0 1 0 1.32.714c.536-.99.84-2.125.84-3.328a7 7 0 0 0-.84-3.328"/></svg>
